X: 32083
T: Pentatonic
R: polka
M: 2/4
K: Gmajor
D2 G>A|Bd Bd/B/|AG BA|AG ED|
D2 G>A|Bd Bd/B/|AG BA|G2 G2:|
|:g2 eg/e/|dB d2|G>A BA|AG ED|
D2 G>A|Bd B2|AG BA|G2 G2:|

